icons/linear-new-office-doc-order-exchange.svg

<svg xmlns="http://www.w3.org/2000/svg" width="32px" height="32px" viewBox="0 0 32 32" version="1.1">
    <title>linear-new-office-doc-order-exchange</title>
    <g id="linear-new-office-doc-order-exchange" stroke-width="1" fill-rule="evenodd">
        <path d="M8,4 L8,6 L6,6 L6,28 L26,28 L26,6 L24,6 L24,4 L27,4 C27.5522847,4 28,4.44771525 28,5 L28,29 C28,29.5522847 27.5522847,30 27,30 L5,30 C4.44771525,30 4,29.5522847 4,29 L4,5 C4,4.44771525 4.44771525,4 5,4 L8,4 Z M20.5,19 C21.3133726,19 21.7864967,19.9193697 21.3137335,20.5812382 L18.8137335,24.0812382 C18.4927245,24.5306508 17.8681744,24.6347425 17.4187618,24.3137335 C16.9693492,23.9927245 16.8652575,23.3681744 17.1862665,22.9187618 L18.556,21 L11,21 C10.4871642,21 10.0644928,20.6139598 10.0067277,20.1166211 L10,20 C10,19.4477153 10.4477153,19 11,19 L20.5,19 Z M14.5812382,11.6862665 C15.0306508,12.0072755 15.1347425,12.6318256 14.8137335,13.0812382 L13.442,15 L21,15 C21.5128358,15 21.9355072,15.3860402 21.9932723,15.8833789 L22,16 C22,16.5522847 21.5522847,17 21,17 L11.5,17 C10.6866274,17 10.2135033,16.0806303 10.6862665,15.4187618 L13.1862665,11.9187618 C13.5072755,11.4693492 14.1318256,11.3652575 14.5812382,11.6862665 Z M21,2 C21.5522847,2 22,2.44771525 22,3 L22,7 C22,7.55228475 21.5522847,8 21,8 L11,8 C10.4477153,8 10,7.55228475 10,7 L10,3 C10,2.44771525 10.4477153,2 11,2 L21,2 Z M20,4 L12,4 L12,6 L20,6 L20,4 Z" id="&#24418;&#29366;" fill-rule="nonzero" />
    </g>
</svg>

<svg xmlns="http://www.w3.org/2000/svg" viewBox="0 0 32 32"><path fill="currentColor" d="M8 4v2H6v22h20V6h-2V4h3a1 1 0 0 1 1 1v24a1 1 0 0 1-1 1H5a1 1 0 0 1-1-1V5a1 1 0 0 1 1-1zm12.5 15a1 1 0 0 1 .814 1.581l-2.5 3.5a1 1 0 1 1-1.628-1.162L18.556 21H11a1 1 0 0 1-.993-.883L10 20a1 1 0 0 1 1-1zm-5.919-7.314a1 1 0 0 1 .233 1.395L13.442 15H21a1 1 0 0 1 .993.883L22 16a1 1 0 0 1-1 1h-9.5a1 1 0 0 1-.814-1.581l2.5-3.5a1 1 0 0 1 1.395-.233M21 2a1 1 0 0 1 1 1v4a1 1 0 0 1-1 1H11a1 1 0 0 1-1-1V3a1 1 0 0 1 1-1zm-1 2h-8v2h8z"/></svg>
